source/img/logo/main-logo-tablet.svg

<svg width="174" height="52" viewBox="0 0 174 52" fill="none" xmlns="http://www.w3.org/2000/svg">
<g clip-path="url(#clip0_71261_473)">
<path d="M51.5819 20.854C50.0969 17.265 47.7053 14.1312 44.6456 11.7649C41.5858 9.39869 37.9646 7.88262 34.143 7.36781C30.3214 6.85301 26.4328 7.35745 22.8646 8.83086C19.2965 10.3043 16.1735 12.6952 13.8068 15.7654C11.4402 18.8355 9.9125 22.4777 9.37609 26.329C8.83968 30.1802 9.31325 34.106 10.7496 37.7151C12.186 41.3242 14.535 44.4906 17.5625 46.8987C20.59 49.3068 24.1903 50.8726 28.0046 51.4399C27.505 49.6238 26.9967 47.6166 26.5488 45.4878C27.8519 46.3405 29.2235 47.0816 30.6492 47.7035V47.7035C30.6492 47.7035 30.7526 49.5804 30.8904 51.6745C32.4308 51.7013 33.9698 51.5644 35.4818 51.2661C35.4427 51.0477 35.4427 50.8241 35.4818 50.6057C35.7316 48.9808 36.4208 46.0526 36.5586 44.167C37.552 43.2297 38.3948 42.1421 39.0567 40.9434V40.9434L39.005 41.3257C38.5313 45.0273 37.5406 48.9808 36.9376 50.0757C36.7424 50.4381 36.5021 50.7739 36.2226 51.0749C39.3408 50.3371 42.2626 48.924 44.7855 46.9336C47.3083 44.9433 49.3718 42.4233 50.8329 39.5484C52.2941 36.6735 53.1179 33.5124 53.2472 30.2843C53.3765 27.0563 52.8083 23.8385 51.5819 20.854V20.854ZM50.3156 24.1472C49.9366 24.5208 49.1527 24.7728 49.0235 23.6432C48.8942 22.5136 48.8598 21.7229 48.8598 21.7229C48.8598 21.7229 47.1972 18.7425 46.577 18.7078C45.9568 18.673 41.5549 21.7229 40.3919 23.0524C39.3841 24.1733 39.1859 24.0951 39.1859 26.0675C39.1859 27.5534 39.3755 33.1666 39.2721 37.459L32.2514 39.3446C30.0448 39.9834 27.8007 40.4825 25.5323 40.8391L24.6709 35.7733H24.5503L22.3364 24.3297C22.3364 24.3297 19.0543 23.0784 17.8483 22.7396C17.2821 22.4897 16.6568 22.4084 16.0462 22.5054C15.4356 22.6024 14.8653 22.8736 14.4026 23.287C13.9306 23.7039 13.5531 24.2185 13.296 24.7958C13.0388 25.373 12.908 25.9994 12.9124 26.6323C13.0945 27.0362 13.2331 27.4585 13.3258 27.8922C13.3689 28.3093 12.2921 28.2659 11.603 28.2659C10.9138 28.2659 10.8105 27.0146 11.3532 25.5462C11.7766 24.417 12.3013 23.3292 12.921 22.2964C13.387 21.3738 13.9881 20.5273 14.7041 19.7852C14.7041 19.7852 14.8247 19.4898 15.7809 19.5767C16.7371 19.6636 22.0521 19.9503 22.0521 19.9503L22.0952 17.9779C27.8722 17.1733 33.6987 16.7842 39.5305 16.8135C39.5305 17.3436 39.5305 17.8736 39.5305 18.4037C41.7394 17.3869 44.118 16.7974 46.5425 16.6658C46.6723 16.6625 46.8008 16.6917 46.9166 16.7509C47.0323 16.81 47.1317 16.8972 47.2058 17.0047C47.4987 17.3783 49.2819 19.6115 49.4886 19.933C50.0677 20.7677 50.5942 21.6383 51.065 22.5397C50.9037 23.1104 50.6505 23.6505 50.3156 24.1385V24.1472Z" fill="#FDC305"/>
<path d="M48.6363 18.8294C49.0411 19.3508 49.3943 19.8113 49.4977 19.9503C50.0768 20.7851 50.6033 21.6557 51.0741 22.5571C50.9102 23.1091 50.6601 23.6312 50.3333 24.1038C49.9543 24.4774 49.1704 24.7294 49.0411 23.5998C48.9119 22.4702 48.8602 21.7229 48.8602 21.7229C48.8602 21.7229 47.1977 18.7425 46.5775 18.7078C45.9572 18.673 41.5553 21.7229 40.3924 23.0524C39.3845 24.1733 39.1864 24.0951 39.1864 26.0675C39.1864 27.3709 39.3328 31.8458 39.2984 35.8254C40.8576 35.9992 43.149 36.4337 43.8381 37.459C43.8381 37.459 43.5883 31.2202 50.5659 34.4873C50.5659 34.4873 50.8071 25.9806 60.4378 28.1616C57.1639 24.2844 53.1505 21.1107 48.6363 18.8294V18.8294Z" fill="#F06351"/>
<path d="M39.5654 16.8135C39.6004 11.9987 39.1967 7.1907 38.3594 2.45035C38.3594 2.45035 38.2302 1.32075 37.61 2.24181C37.0982 3.34291 36.7499 4.51402 36.5762 5.71747C32.8938 5.47914 29.1975 5.57802 25.5327 6.0129C24.8264 3.62338 23.6204 2.53724 23.0432 2.82398C22.466 3.11072 22.3971 5.67403 22.3971 5.67403L22.1129 17.9779C27.8956 17.1725 33.7279 16.7834 39.5654 16.8135V16.8135Z" fill="#F06351"/>
<path d="M39.0651 40.9434C39.1771 40.0136 39.2374 38.7798 39.2718 37.4156L32.2515 39.3011C30.0459 39.9546 27.8019 40.4682 25.5327 40.8391L26.4889 45.1837C26.4889 45.2793 26.4889 45.3748 26.5492 45.4704C27.8522 46.3231 29.2237 47.0642 30.6494 47.6862C32.7328 46.6815 34.7171 45.4799 36.5757 44.0975V44.1497C37.5646 43.217 38.4044 42.1354 39.0651 40.9434V40.9434Z" fill="#E55645"/>
<path d="M27.5657 14.0938C27.5226 14.0069 28.4271 14.6847 28.7803 14.8932C29.1334 15.1018 29.3057 15.2582 29.3057 15.4059C29.3057 15.5536 29.0817 15.7013 28.7716 15.7013C28.4615 15.7013 27.9792 15.5971 27.9103 15.4754C27.8413 15.3538 28.4271 15.4754 28.72 15.4754H28.9698C28.4394 15.084 27.9667 14.6189 27.5657 14.0938Z" fill="black"/>
<path d="M34.0264 14.1894C34.0264 14.1894 33.165 15.3016 33.0875 15.3538C33.0099 15.4059 32.941 15.6492 33.2511 15.6057C33.6071 15.5521 33.9585 15.4708 34.302 15.3624C34.3968 15.3103 34.3623 15.1887 34.1986 15.206C34.035 15.2234 33.6129 15.2495 33.3373 15.3016L34.0694 14.1981C34.0694 14.1981 34.0953 14.0938 34.0264 14.1894Z" fill="black"/>
<path d="M31.3215 19.4985C31.7208 19.321 32.0508 19.0156 32.2604 18.6296C32.5016 18.0561 32.2604 17.8389 31.8814 17.7607C31.36 17.6647 30.8218 17.7702 30.374 18.0561C30.038 18.3776 30.0811 18.6904 30.374 18.925C30.6649 19.1552 30.9832 19.3478 31.3215 19.4985V19.4985Z" fill="black"/>
<path d="M31.0113 20.5933C30.9124 20.7904 30.778 20.9672 30.615 21.1147C30.3697 21.3138 30.0681 21.4294 29.7536 21.4449C29.2794 21.4918 28.8052 21.3552 28.4271 21.0625C28.2535 20.9601 28.0989 20.8278 27.9706 20.6715C27.8844 20.5769 27.7785 20.5027 27.6605 20.4543C27.6605 20.4543 28.3065 24.0255 29.8742 24.599C31.4419 25.1725 31.7348 23.9387 31.7779 23.6085C31.8304 22.6196 31.5841 21.6379 31.0715 20.7932C31.0715 20.5325 31.0543 20.7063 31.0113 20.5933Z" fill="#F06351"/>
<path d="M29.5469 21.5839C29.1438 21.5254 28.7566 21.3852 28.4087 21.1716C28.0608 20.9581 27.7594 20.6756 27.5226 20.3413C27.5015 20.3174 27.4897 20.2865 27.4897 20.2544C27.4897 20.2224 27.5015 20.1915 27.5226 20.1676C27.5339 20.156 27.5473 20.1468 27.5621 20.1405C27.5769 20.1343 27.5927 20.131 27.6088 20.131C27.6248 20.131 27.6407 20.1343 27.6555 20.1405C27.6703 20.1468 27.6837 20.156 27.6949 20.1676C27.9081 20.4692 28.1785 20.7252 28.4905 20.9206C28.8025 21.116 29.1499 21.2469 29.5124 21.3058C29.7993 21.2841 30.0769 21.194 30.3225 21.0429C30.5681 20.8919 30.7746 20.6842 30.9251 20.4369L31.0457 20.2718L31.1319 20.463C31.1319 20.463 31.4592 21.1234 31.9932 21.1581C32.5273 21.1929 32.9063 20.7932 33.3973 20.0372C33.4156 20.0096 33.444 19.9904 33.4763 19.9838C33.5086 19.9773 33.5422 19.984 33.5696 20.0025C33.597 20.0209 33.616 20.0496 33.6225 20.0822C33.6289 20.1147 33.6223 20.1486 33.604 20.1762C33.0298 21.0278 32.4871 21.4362 31.976 21.4014C31.7785 21.375 31.5893 21.3043 31.4224 21.1946C31.2554 21.0848 31.115 20.9388 31.0113 20.7671C30.8427 21.0045 30.6238 21.201 30.3705 21.3423C30.1172 21.4836 29.8358 21.5661 29.5469 21.5839Z" fill="black"/>
<path d="M31.2353 33.2795C33.0192 33.2795 34.4655 31.8207 34.4655 30.0211C34.4655 28.2215 33.0192 26.7626 31.2353 26.7626C29.4513 26.7626 28.0051 28.2215 28.0051 30.0211C28.0051 31.8207 29.4513 33.2795 31.2353 33.2795Z" fill="#FDC305"/>
<path d="M35.5163 27.3709L32.8201 28.5092L33.8107 23.6172L27.3503 32.0978L30.0465 30.9595L29.0559 35.8602L35.5163 27.3709ZM29.1506 30.6988L32.734 25.998L32.0363 29.4737L33.7591 28.7611L30.1498 33.4707L30.8476 29.995L29.1506 30.6988Z" fill="#111111"/>
<path d="M27.9447 29.4215C28.4776 29.4215 28.9095 28.9858 28.9095 28.4483C28.9095 27.9109 28.4776 27.4751 27.9447 27.4751C27.4119 27.4751 26.98 27.9109 26.98 28.4483C26.98 28.9858 27.4119 29.4215 27.9447 29.4215Z" fill="#111111"/>
<path d="M33.5612 32.9493C33.9371 32.9493 34.2417 32.642 34.2417 32.2629C34.2417 31.8838 33.9371 31.5764 33.5612 31.5764C33.1854 31.5764 32.8807 31.8838 32.8807 32.2629C32.8807 32.642 33.1854 32.9493 33.5612 32.9493Z" fill="#111111"/>
<path d="M34.3882 31.0638C34.5547 31.0638 34.6897 30.9276 34.6897 30.7597C34.6897 30.5917 34.5547 30.4555 34.3882 30.4555C34.2217 30.4555 34.0867 30.5917 34.0867 30.7597C34.0867 30.9276 34.2217 31.0638 34.3882 31.0638Z" fill="#111111"/>
<path d="M39.5224 18.3863C37.9674 19.8002 36.5029 21.3123 35.1377 22.9133C33.7778 24.5028 32.2433 25.9312 30.5635 27.171C30.374 26.7105 29.1594 25.8503 29.1594 25.8503C29.1594 25.8503 26.4545 23.9821 24.6799 22.5136C23.7207 21.7077 22.8169 20.8368 21.9751 19.9069L20.2522 19.8113C22.7392 23.4757 26.3826 26.183 30.5893 27.4925C31.3302 27.3709 33.4148 25.8677 34.974 24.6425C36.8187 23.0601 38.5461 21.3437 40.1426 19.5072C40.5717 18.9928 40.9044 18.4039 41.1246 17.7693C40.1426 18.0995 39.5224 18.3863 39.5224 18.3863Z" fill="#F06351"/>
<path d="M22.3368 24.3297C22.3368 24.3297 19.0548 23.0784 17.8488 22.7396C17.2825 22.4897 16.6572 22.4084 16.0467 22.5054C15.4361 22.6024 14.8658 22.8736 14.4031 23.287C13.931 23.7039 13.5536 24.2185 13.2964 24.7958C13.0393 25.373 12.9084 25.9994 12.9128 26.6323C13.0949 27.0362 13.2335 27.4585 13.3263 27.8922C13.3694 28.3093 12.2926 28.2659 11.6034 28.2659C10.9143 28.2659 10.8109 27.0146 11.3536 25.5462C11.777 24.417 12.3018 23.3292 12.9214 22.2964C8.22664 24.7641 0 30.4642 0 30.4642C2.35316 30.3211 4.71429 30.3909 7.0551 30.6728C11.5776 31.1333 11.3622 34.7306 11.3622 34.7306C12.9529 34.2883 14.574 33.9659 16.2121 33.7661C18.0383 33.6445 18.1675 35.6082 18.1675 35.6082L18.6241 38.9622C19.3173 38.2057 20.0819 37.5189 20.9069 36.9116C21.9703 36.0529 23.3243 35.6476 24.6799 35.782V35.782L22.3368 24.3297Z" fill="#F06351"/>
<path d="M73.7899 36.4945C72.9025 35.1681 72.4782 33.5814 72.584 31.9848V25.468C72.472 23.8596 72.8899 22.2589 73.7727 20.9148C74.5709 19.8779 75.9348 19.3624 77.8643 19.3682C79.7938 19.374 81.1002 19.8287 81.7836 20.7324C82.6168 21.8522 83.0234 23.2368 82.9292 24.6338V26.1631H79.3631V24.5035C79.3583 24.0668 79.3208 23.6311 79.2511 23.2001C79.208 22.8881 79.066 22.5985 78.8462 22.3746C78.7106 22.2573 78.5531 22.1684 78.3831 22.1132C78.213 22.058 78.0337 22.0376 77.8557 22.0531C77.6 22.0146 77.3388 22.0565 77.1076 22.1731C76.8764 22.2898 76.6864 22.4754 76.5636 22.7048C76.3371 23.315 76.2374 23.9657 76.2707 24.6164V32.8885C76.2314 33.5435 76.3465 34.1986 76.6066 34.8001C76.7309 35.0171 76.9153 35.1927 77.1372 35.3054C77.3591 35.4181 77.6088 35.463 77.8557 35.4344C78.0982 35.469 78.3454 35.4255 78.5619 35.31C78.7785 35.1946 78.9533 35.0131 79.0616 34.7914C79.27 34.1801 79.3606 33.5342 79.3286 32.8885V31.1507H82.8948V32.6539C82.9997 34.0715 82.6263 35.4832 81.8353 36.6596C81.0772 37.6154 79.7679 38.0846 77.9073 38.0846C76.0467 38.0846 74.591 37.5633 73.7899 36.4945Z" fill="#111111"/>
<path d="M87.788 19.6201H91.871L95.3166 37.8674H91.9227L91.3111 33.8356H88.4513L87.7622 37.8413H84.3167L87.788 19.6201ZM90.9321 31.5417L89.8468 24.208L88.77 31.5417H90.9321Z" fill="#111111"/>
<path d="M97.9615 22.3659H95.1707V19.6201H104.405V22.3659H101.648V37.8413H97.9529L97.9615 22.3659Z" fill="#111111"/>
<path d="M111.65 19.6201H118.653V21.5144H114.174V27.536H117.809V29.3346H114.174V36.0166H118.696V37.8413H111.65V19.6201Z" fill="#444444"/>
<path d="M120.729 19.6201H122.452L127.62 31.7241V19.6201H129.722V37.8674H128.111L122.943 25.4245V37.8413H120.807L120.729 19.6201Z" fill="#444444"/>
<path d="M132.505 19.6201H139.499V21.5144H135.02V27.536H138.69V29.3346H135.055V36.0166H139.551V37.8413H132.505V19.6201Z" fill="#444444"/>
<path d="M141.576 19.6201H145.211C146.643 19.5039 148.07 19.9075 149.234 20.7584C150.095 21.5144 150.517 22.7482 150.517 24.46C150.517 26.7771 149.773 28.1935 148.286 28.709L150.87 37.8413H148.424L146.055 29.2912H144.1V37.8413H141.576V19.6201ZM145.021 27.4404C145.851 27.5214 146.681 27.2858 147.347 26.78C147.618 26.4569 147.82 26.0812 147.942 25.6763C148.063 25.2713 148.101 24.8456 148.053 24.4253C148.071 23.8357 147.986 23.2477 147.804 22.6874C147.73 22.4808 147.615 22.2913 147.467 22.1301C147.319 21.969 147.141 21.8393 146.942 21.749C146.383 21.5176 145.78 21.4137 145.176 21.4449H144.065V27.4751L145.021 27.4404Z" fill="#444444"/>
<path d="M153.911 36.4945C153.088 35.0926 152.707 33.4714 152.817 31.8458V25.7634C152.788 24.5896 152.933 23.418 153.248 22.2877C153.497 21.438 154.026 20.6992 154.747 20.1936C155.618 19.6642 156.626 19.41 157.641 19.4637C158.298 19.4007 158.961 19.4832 159.582 19.7053C160.204 19.9274 160.771 20.2839 161.242 20.7497C162.068 21.9176 162.459 23.3426 162.344 24.7728V25.4506H159.976V24.8858C159.992 24.2103 159.94 23.5348 159.821 22.8699C159.742 22.4437 159.509 22.0626 159.166 21.8011C158.719 21.5349 158.202 21.4108 157.684 21.4449C157.122 21.3963 156.562 21.5709 156.125 21.9315C155.768 22.2734 155.534 22.7261 155.462 23.2175C155.353 23.9332 155.304 24.657 155.315 25.3811V32.1499C155.247 33.1785 155.421 34.2088 155.824 35.1564C156.057 35.4478 156.354 35.6814 156.691 35.8395C157.028 35.9975 157.396 36.0757 157.768 36.0682C158.139 36.0606 158.504 35.9675 158.835 35.7959C159.165 35.6243 159.452 35.3788 159.674 35.0782C160.089 34.076 160.269 32.9905 160.2 31.9066V30.6206H157.908V28.822H162.474V37.8413H160.914L160.665 35.7472C160.467 36.4429 160.042 37.0508 159.459 37.472C158.876 37.8933 158.168 38.103 157.452 38.0672C156.778 38.1272 156.1 38.0144 155.481 37.7395C154.862 37.4645 154.322 37.0363 153.911 36.4945V36.4945Z" fill="#444444"/>
<path d="M167.711 31.4113L163.809 19.6201H166.152L168.917 28.4136L171.639 19.6201H174.008L170.132 31.4113V37.8413H167.72L167.711 31.4113Z" fill="#444444"/>
</g>
<defs>
<clipPath id="clip0_71261_473">
<rect width="174" height="51.6832" fill="white"/>
</clipPath>
</defs>
</svg>

<svg width="174" height="52" viewBox="0 0 174 52" fill="none" xmlns="http://www.w3.org/2000/svg"><g clip-path="url(#a)"><path d="M51.58 20.85a22.23 22.23 0 0 0-6.93-9.09 21.96 21.96 0 0 0-21.79-2.93 22.08 22.08 0 0 0-9.05 6.94 22.35 22.35 0 0 0-3.06 21.95 22.24 22.24 0 0 0 6.81 9.18A21.97 21.97 0 0 0 28 51.44c-.5-1.82-1-3.82-1.45-5.95 1.3.85 2.67 1.6 4.1 2.21 0 0 .1 1.88.24 3.97 1.54.03 3.08-.1 4.6-.4a1.87 1.87 0 0 1 0-.66c.24-1.63.93-4.56 1.07-6.44 1-.94 1.83-2.03 2.5-3.23l-.05.39c-.48 3.7-1.47 7.65-2.07 8.75-.2.36-.44.7-.72 1a22 22 0 0 0 14.61-11.53 22.43 22.43 0 0 0 .75-18.7Zm-1.26 3.3c-.38.37-1.17.62-1.3-.5-.13-1.14-.16-1.93-.16-1.93s-1.66-2.98-2.28-3.01c-.62-.04-5.03 3.01-6.19 4.34-1 1.12-1.2 1.05-1.2 3.02 0 1.48.19 7.1.08 11.39l-7.02 1.88c-2.2.64-4.45 1.14-6.72 1.5l-.86-5.07h-.12l-2.21-11.44s-3.29-1.25-4.5-1.59a3.21 3.21 0 0 0-3.44.55 4.4 4.4 0 0 0-1.49 3.34c.18.4.32.83.42 1.26.04.42-1.04.38-1.73.38s-.79-1.26-.25-2.72c.43-1.13.95-2.22 1.57-3.25.47-.93 1.07-1.77 1.78-2.51 0 0 .12-.3 1.08-.21.96.08 6.27.37 6.27.37l.05-1.97c5.77-.8 11.6-1.2 17.43-1.17v1.6c2.2-1.02 4.59-1.61 7.01-1.74a.78.78 0 0 1 .67.33c.29.38 2.07 2.61 2.28 2.93.58.84 1.1 1.7 1.57 2.61a5.44 5.44 0 0 1-.74 1.6Z" fill="#FDC305"/><path d="m48.64 18.83.86 1.12c.58.84 1.1 1.7 1.57 2.6a5.44 5.44 0 0 1-.74 1.55c-.38.38-1.16.63-1.29-.5-.13-1.13-.18-1.88-.18-1.88s-1.66-2.98-2.28-3.01c-.62-.04-5.02 3.01-6.19 4.34-1 1.12-1.2 1.05-1.2 3.02 0 1.3.14 5.78.1 9.76 1.57.17 3.86.6 4.55 1.63 0 0-.25-6.24 6.73-2.97 0 0 .24-8.5 9.87-6.33a37.71 37.71 0 0 0-11.8-9.33ZM39.57 16.81C39.6 12 39.2 7.2 38.36 2.45c0 0-.13-1.13-.75-.2-.51 1.1-.86 2.26-1.03 3.47a60.54 60.54 0 0 0-11.05.3c-.7-2.4-1.91-3.48-2.49-3.2-.57.3-.64 2.85-.64 2.85l-.29 12.3c5.79-.8 11.62-1.19 17.46-1.16Z" fill="#F06351"/><path d="M39.07 40.94c.1-.93.17-2.16.2-3.52l-7.02 1.88c-2.2.65-4.45 1.17-6.72 1.54l.96 4.34c0 .1 0 .2.06.29 1.3.85 2.67 1.6 4.1 2.22 2.08-1 4.07-2.21 5.93-3.6v.06c.98-.93 1.82-2.01 2.49-3.2Z" fill="#E55645"/><path d="M27.57 14.1c-.05-.1.86.58 1.21.8.35.2.53.36.53.5 0 .15-.23.3-.54.3-.3 0-.8-.1-.86-.22-.07-.13.52 0 .81 0h.25c-.53-.4-1-.86-1.4-1.39ZM34.03 14.19s-.87 1.11-.94 1.16c-.08.06-.15.3.16.26.36-.06.7-.14 1.05-.25.1-.05.06-.17-.1-.15-.17.01-.59.04-.86.1l.73-1.11s.03-.1-.04-.01ZM31.32 19.5c.4-.18.73-.48.94-.87.24-.57 0-.8-.38-.87a2.1 2.1 0 0 0-1.5.3c-.34.32-.3.63 0 .87.28.23.6.42.94.57Z" fill="#000"/><path d="M31.01 20.6a1.48 1.48 0 0 1-1.26.85c-.47.04-.94-.1-1.32-.39-.18-.1-.33-.23-.46-.39a.86.86 0 0 0-.3-.22c-.01 0 .64 3.58 2.2 4.15 1.57.57 1.86-.66 1.9-1 .06-.98-.19-1.96-.7-2.8 0-.27-.02-.1-.06-.2Z" fill="#F06351"/><path d="M29.55 21.58a3 3 0 0 1-2.03-1.24.13.13 0 0 1 0-.17.12.12 0 0 1 .09-.04.12.12 0 0 1 .08.04 2.78 2.78 0 0 0 1.82 1.14 1.8 1.8 0 0 0 1.42-.87l.12-.17.08.2s.33.65.86.69c.54.03.92-.37 1.4-1.12a.12.12 0 0 1 .17-.03.13.13 0 0 1 .04.17c-.57.85-1.11 1.26-1.62 1.22a1.33 1.33 0 0 1-.97-.63 1.95 1.95 0 0 1-1.46.81Z" fill="#000"/><path d="M31.24 33.28a3.24 3.24 0 0 0 3.23-3.26c0-1.8-1.45-3.26-3.23-3.26A3.24 3.24 0 0 0 28 30.02c0 1.8 1.44 3.26 3.23 3.26Z" fill="#FDC305"/><path d="m35.52 27.37-2.7 1.14 1-4.9-6.47 8.49 2.7-1.14-1 4.9 6.47-8.49Zm-6.37 3.33 3.58-4.7-.7 3.47 1.73-.7-3.61 4.7.7-3.47-1.7.7ZM27.94 29.42c.54 0 .97-.43.97-.97a.97.97 0 0 0-.97-.97.97.97 0 0 0-.96.97c0 .54.43.97.96.97ZM33.56 32.95c.38 0 .68-.3.68-.69 0-.38-.3-.68-.68-.68a.68.68 0 0 0 0 1.37ZM34.39 31.06a.3.3 0 0 0 .3-.3.3.3 0 0 0-.3-.3.3.3 0 0 0-.3.3c0 .17.13.3.3.3Z" fill="#111"/><path d="M39.52 18.39a49.73 49.73 0 0 0-4.38 4.52 27.56 27.56 0 0 1-4.58 4.26c-.19-.46-1.4-1.32-1.4-1.32s-2.7-1.87-4.48-3.34c-.96-.8-1.86-1.67-2.7-2.6l-1.73-.1A19.5 19.5 0 0 0 30.6 27.5c.74-.12 2.82-1.62 4.38-2.85a49.89 49.89 0 0 0 5.17-5.13c.43-.52.76-1.1.98-1.74-.98.33-1.6.62-1.6.62ZM22.34 24.33s-3.29-1.25-4.5-1.59a3.21 3.21 0 0 0-3.44.55 4.4 4.4 0 0 0-1.49 3.34c.18.4.32.83.42 1.26.04.42-1.04.38-1.73.38s-.79-1.26-.25-2.72a19.9 19.9 0 0 1 1.57-3.25C8.22 24.76 0 30.46 0 30.46c2.35-.14 4.71-.07 7.06.21 4.52.46 4.3 4.06 4.3 4.06 1.6-.44 3.21-.76 4.85-.96 1.83-.13 1.96 1.84 1.96 1.84l.45 3.35a15.8 15.8 0 0 1 2.29-2.05 5.19 5.19 0 0 1 3.77-1.13l-2.34-11.45Z" fill="#F06351"/><path d="M73.79 36.5a7.25 7.25 0 0 1-1.2-4.52v-6.51c-.12-1.61.3-3.21 1.18-4.56.8-1.03 2.16-1.55 4.1-1.54 1.92 0 3.23.46 3.91 1.36a5.88 5.88 0 0 1 1.15 3.9v1.53h-3.57V24.5c0-.43-.04-.87-.1-1.3-.05-.31-.2-.6-.41-.83a1.34 1.34 0 0 0-1-.32 1.25 1.25 0 0 0-1.29.65 4.8 4.8 0 0 0-.29 1.92v8.27c-.04.65.08 1.3.34 1.91a1.28 1.28 0 0 0 1.25.63 1.15 1.15 0 0 0 1.2-.64c.21-.61.3-1.26.27-1.9v-1.74h3.56v1.5a6.34 6.34 0 0 1-1.05 4.01c-.76.96-2.07 1.42-3.93 1.42-1.86 0-3.32-.52-4.12-1.59ZM87.79 19.62h4.08l3.45 18.25h-3.4l-.6-4.03h-2.87l-.69 4h-3.44l3.47-18.22Zm3.14 11.92-1.08-7.33-1.08 7.33h2.16ZM97.96 22.37h-2.79v-2.75h9.23v2.75h-2.75v15.47h-3.7l.01-15.47Z" fill="#111"/><path d="M111.65 19.62h7v1.9h-4.48v6.02h3.64v1.8h-3.64v6.68h4.53v1.82h-7.05V19.62ZM120.73 19.62h1.72l5.17 12.1v-12.1h2.1v18.25h-1.6l-5.18-12.45v12.42h-2.13l-.08-18.22ZM132.5 19.62h7v1.9h-4.48v6.02h3.67v1.8h-3.63v6.68h4.5v1.82h-7.06V19.62ZM141.58 19.62h3.63a6 6 0 0 1 4.02 1.14c.87.75 1.29 1.99 1.29 3.7 0 2.32-.75 3.73-2.23 4.25l2.58 9.13h-2.45l-2.36-8.55h-1.96v8.55h-2.52V19.62Zm3.44 7.82c.83.08 1.66-.15 2.33-.66a3.12 3.12 0 0 0 .7-2.35 5.12 5.12 0 0 0-.25-1.74 1.64 1.64 0 0 0-.86-.94 4.07 4.07 0 0 0-1.76-.3h-1.12v6.03l.96-.04ZM153.91 36.5a8.1 8.1 0 0 1-1.1-4.65v-6.09c-.02-1.17.12-2.34.44-3.47a3.9 3.9 0 0 1 1.5-2.1 5.06 5.06 0 0 1 2.9-.73 4.5 4.5 0 0 1 3.6 1.29 6.12 6.12 0 0 1 1.1 4.02v.68h-2.37v-.56c.01-.68-.04-1.36-.16-2.02-.08-.43-.31-.8-.65-1.07a2.57 2.57 0 0 0-1.49-.36 2.16 2.16 0 0 0-1.56.5c-.35.33-.59.79-.66 1.28-.1.71-.16 1.44-.15 2.16v6.77c-.06 1.03.11 2.06.51 3a2.43 2.43 0 0 0 3.85-.07c.42-1 .6-2.09.53-3.17v-1.29h-2.3v-1.8h4.57v9.02h-1.56l-.25-2.1a3.21 3.21 0 0 1-3.2 2.33 3.98 3.98 0 0 1-3.55-1.58ZM167.71 31.41l-3.9-11.79h2.34l2.77 8.8 2.72-8.8H174l-3.88 11.8v6.42h-2.41v-6.43Z" fill="#444"/></g><defs><clipPath id="a"><path fill="#fff" d="M0 0h174v51.68H0z"/></clipPath></defs></svg>
